;FLAVOR:RepRap
;TIME:6583
;Filament used: 4.38136m
;Layer height: 0.2
;Generated with Cura_SteamEngine 3.3.1
T0
M190 S60
M104 S205
M104 T1 S200
M109 S205
M109 T1 S200
M82 ;absolute extrusion mode
G28 ;Home

G92 E0
M83 ;relative extrusion mode
G1 F3900 E-5
;LAYER_COUNT:99
;LAYER:0
M107
M203 Z24000
M104 T1 S205
G0 F9000 X-4.83 Y14.449 Z0.3
;TYPE:SKIRT
G1 F3900 E5
G1 F1200 X-10.687 Y13.166 E0.63566
G1 X-11.174 Y13.018 E0.05396
G1 X-11.633 Y12.796 E0.05405
G1 X-12.051 Y12.505 E0.054
G1 X-12.418 Y12.152 E0.05399
G1 X-12.726 Y11.746 E0.05403
G1 X-12.967 Y11.297 E0.05403
G1 X-13.135 Y10.816 E0.05401
G1 X-13.225 Y10.314 E0.05407
G1 X-13.241 Y9.991 E0.03429
G1 X-13.24 Y-9.991 E2.11843
G1 X-13.2 Y-10.499 E0.05402
G1 X-13.081 Y-10.995 E0.05408
G1 X-12.886 Y-11.465 E0.05395
G1 X-12.62 Y-11.9 E0.05406
G1 X-12.29 Y-12.288 E0.054
G1 X-11.902 Y-12.619 E0.05407
G1 X-11.468 Y-12.885 E0.05397
G1 X-10.998 Y-13.081 E0.05399
G1 X-10.502 Y-13.2 E0.05408
G1 X-9.99 Y-13.241 E0.05445
G1 X9.994 Y-13.24 E2.11864
G1 X10.502 Y-13.2 E0.05402
G1 X10.998 Y-13.081 E0.05408
G1 X11.468 Y-12.886 E0.05395
G1 X11.903 Y-12.62 E0.05406
G1 X12.291 Y-12.29 E0.054
G1 X12.622 Y-11.902 E0.05407
G1 X12.812 Y-11.609 E0.03702
G1 X14.498 Y-8.675 E0.35875
G1 X17.449 Y-4.037 E0.5828
G1 X20.639 Y0.402 E0.57952
G1 X24.09 Y4.672 E0.58205
G1 X27.764 Y8.727 E0.58011
G1 X29.653 Y10.641 E0.2851
G1 X33.678 Y14.388 E0.583
G1 X37.888 Y17.886 E0.58029
G1 X42.306 Y21.15 E0.58234
G1 X46.866 Y24.138 E0.57798
G1 X51.609 Y26.875 E0.58055
G1 X56.496 Y29.338 E0.58018
G1 X61.494 Y31.513 E0.57787
G1 X66.645 Y33.414 E0.58209
G1 X71.895 Y35.022 E0.58211
G1 X77.222 Y36.329 E0.5815
G1 X81.518 Y37.153 E0.46375
G1 X81.857 Y37.237 E0.03703
G1 X85.195 Y38.259 E0.3701
G1 X85.777 Y38.501 E0.06682
G1 X88.755 Y40.094 E0.35805
G1 X89.285 Y40.448 E0.06757
G1 X91.926 Y42.617 E0.36231
G1 X92.379 Y43.072 E0.06807
G1 X94.576 Y45.759 E0.36797
G1 X94.928 Y46.287 E0.06728
G1 X96.531 Y49.293 E0.36117
G1 X96.773 Y49.878 E0.06712
G1 X97.759 Y53.128 E0.36006
G1 X97.883 Y53.75 E0.06724
G1 X98.224 Y57.171 E0.36448
G1 X98.224 Y57.811 E0.06785
G1 X97.888 Y61.225 E0.36369
G1 X97.762 Y61.859 E0.06853
G1 X96.74 Y65.196 E0.37
G1 X96.498 Y65.777 E0.06673
G1 X94.905 Y68.754 E0.35796
G1 X94.55 Y69.284 E0.06763
G1 X92.37 Y71.937 E0.36404
G1 X91.92 Y72.387 E0.06747
G1 X89.276 Y74.556 E0.36256
G1 X88.746 Y74.91 E0.06757
G1 X85.728 Y76.522 E0.36274
G1 X85.14 Y76.765 E0.06745
G1 X81.837 Y77.766 E0.3659
G1 X81.203 Y77.891 E0.06851
G1 X77.75 Y78.221 E0.36774
G1 X77.119 Y78.22 E0.0669
G1 X73.762 Y77.886 E0.35766
G1 X73.14 Y77.762 E0.06724
G1 X69.867 Y76.769 E0.36261
G1 X69.279 Y76.525 E0.06749
G1 X66.248 Y74.905 E0.36435
G1 X65.715 Y74.548 E0.06801
G1 X63.043 Y72.349 E0.36687
G1 X62.59 Y71.895 E0.06799
G1 X60.421 Y69.238 E0.36363
G1 X60.06 Y68.69 E0.06957
G1 X57.604 Y63.998 E0.56146
G1 X54.926 Y59.147 E0.58745
G1 X52.015 Y54.515 E0.57999
G1 X48.843 Y50.048 E0.58083
G1 X45.432 Y45.78 E0.57923
G1 X41.755 Y41.675 E0.58426
G1 X39.862 Y39.736 E0.28729
G1 X37.92 Y37.855 E0.28663
G1 X33.817 Y34.204 E0.58227
G1 X29.525 Y30.801 E0.58069
G1 X25.045 Y27.644 E0.58104
G1 X20.407 Y24.754 E0.57935
G1 X15.608 Y22.128 E0.57996
G1 X10.662 Y19.774 E0.58072
G1 X5.604 Y17.709 E0.5792
G1 X0.412 Y15.925 E0.58203
G1 X-4.83 Y14.449 E0.57735
G1 F3900 E-5
G1 F24000 Z1.3
G0 F9000 X8.75 Y2.666 Z1.3
;TYPE:WALL-INNER
G1 F24000 Z0.3
G1 F3900 E5
G1 F1200 X-8.75 Y2.666 E1.85529
G1 X-8.75 Y-2.054 E0.5004
G1 X8.75 Y-2.054 E1.85529
G1 X8.75 Y2.666 E0.5004
G0 F9000 X9.25 Y3.166
G1 F1200 X-9.25 Y3.166 E1.96131
G1 X-9.25 Y-2.554 E0.60642
G1 X9.25 Y-2.554 E1.96131
G1 X9.25 Y3.166 E0.60642
G0 F9000 X9.75 Y3.666
;TYPE:WALL-OUTER
G1 F1200 X-9.75 Y3.666 E2.06733
G1 X-9.75 Y-3.054 E0.71243
G1 X9.75 Y-3.054 E2.06733
G1 X9.75 Y3.666 E0.71243
G0 F9000 X9.5 Y3.666
G1 F3900 E-5
G1 F24000 Z1.3
G0 F9000 X8.26 Y2.176 Z1.3
;TYPE:SKIN
G1 F24000 Z0.3
G1 F3900 E5
G1 F1200 X-8.26 Y2.176 E1.7514
G1 X-8.26 Y-1.564 E0.3965
G1 X8.26 Y-1.564 E1.7514
G1 X8.26 Y2.176 E0.3965
G1 F3900 E-5
G1 F24000 Z1.3
G0 F9000 X8.034 Y-1.157 Z1.3
G1 F24000 Z0.3
G1 F3900 E5
G1 F1200 X7.853 Y-1.339 E0.02721
G0 F9000 X7.146 Y-1.339
G1 F1200 X8.034 Y-.45 E0.13321
G1 X8.122 Y-.362
G0 F9000 X8.034 Y0.256
G1 F1200 X6.438 Y-1.339 E0.23921
G1 X6.35 Y-1.427
G0 F9000 X5.731 Y-1.339
G1 F1200 X8.034 Y0.963 E0.34521
G1 X8.122 Y1.051
G0 F9000 X8.034 Y1.67
G1 F1200 X5.024 Y-1.339 E0.45122
G1 X4.936 Y-1.427
G0 F9000 X4.317 Y-1.339
G1 F1200 X7.607 Y1.95 E0.4932
G1 X7.695 Y2.038
G0 F9000 X6.9 Y1.95
G1 F1200 X3.61 Y-1.339 E0.4932
G1 X3.522 Y-1.427
G0 F9000 X2.903 Y-1.339
G1 F1200 X6.193 Y1.95 E0.4932
G1 X6.281 Y2.038
G0 F9000 X5.486 Y1.95
G1 F1200 X2.196 Y-1.339 E0.4932
G1 X2.108 Y-1.427
G0 F9000 X1.489 Y-1.339
G1 F1200 X4.779 Y1.95 E0.4932
G1 X4.867 Y2.038
G0 F9000 X4.072 Y1.95
G1 F1200 X0.782 Y-1.339 E0.4932
G1 X0.694 Y-1.427
G0 F9000 X0.074 Y-1.339
G1 F1200 X3.365 Y1.95 E0.49327
G1 X3.453 Y2.038
G0 F9000 X2.658 Y1.95
G1 F1200 X-.632 Y-1.339 E0.4932
G1 X-.72 Y-1.427
G0 F9000 X-1.339 Y-1.339
G1 F1200 X1.95 Y1.95 E0.49312
G1 X2.038 Y2.038
G0 F9000 X1.243 Y1.95
G1 F1200 X-2.046 Y-1.339 E0.49312
G1 X-2.134 Y-1.427
G0 F9000 X-2.753 Y-1.339
G1 F1200 X0.536 Y1.95 E0.49312
G1 X0.624 Y2.038
G0 F9000 X-.17 Y1.95
G1 F1200 X-3.46 Y-1.339 E0.4932
G1 X-3.548 Y-1.427
G0 F9000 X-4.167 Y-1.339
G1 F1200 X-.877 Y1.95 E0.4932
G1 X-.789 Y2.038
G0 F9000 X-1.584 Y1.95
G1 F1200 X-4.874 Y-1.339 E0.4932
G1 X-4.962 Y-1.427
G0 F9000 X-5.581 Y-1.339
G1 F1200 X-2.291 Y1.95 E0.4932
G1 X-2.203 Y2.038
G0 F9000 X-2.998 Y1.95
G1 F1200 X-6.289 Y-1.339 E0.49327
G1 X-6.377 Y-1.427
G0 F9000 X-6.996 Y-1.339
G1 F1200 X-3.705 Y1.95 E0.49327
G1 X-3.617 Y2.038
G0 F9000 X-4.413 Y1.95
G1 F1200 X-7.703 Y-1.339 E0.4932
G1 X-7.791 Y-1.427
G0 F9000 X-8.034 Y-.963
G1 F1200 X-5.12 Y1.95 E0.43682
G1 X-5.032 Y2.038
G0 F9000 X-5.827 Y1.95
G1 F1200 X-8.034 Y-.256 E0.33082
G1 X-8.122 Y-.344
G0 F9000 X-8.034 Y0.45
G1 F1200 X-6.534 Y1.95 E0.2249
G1 X-6.446 Y2.038
G0 F9000 X-7.241 Y1.95
G1 F1200 X-8.034 Y1.157 E0.11889
G1 X-8.122 Y1.069
G0 F9000 X-8.034 Y1.864
G1 F1200 X-7.948 Y1.95 E0.01289
G1 F12000 E-16
M82 ;absolute extrusion mode
G0 Y130 F12000
M83 ;relative extrusion mode
T1
M109 S205
M104 T0 S210
G0 F9000 X-7.948 Y1.95 Z0.3
G1 F3900 E-5
G0 F9000 X-7.948 Y11.95
G1 F24000 Z1.3
G0 F9000 X-10.794 Y13.654 Z1.3
;TYPE:SKIRT
G1 F24000 Z0.3
G1 F3900 E5
G1 F1200 X-11.318 Y13.498 E0.05796
G1 X-11.815 Y13.268 E0.05806
G1 X-12.272 Y12.967 E0.05801
G1 X-12.681 Y12.603 E0.05805
G1 X-13.033 Y12.184 E0.05802
G1 X-13.32 Y11.718 E0.05802
G1 X-13.536 Y11.215 E0.05804
G1 X-13.676 Y10.686 E0.05801
G1 X-13.741 Y9.991 E0.074
G1 X-13.74 Y-9.991 E2.11843
G1 X-13.7 Y-10.537 E0.05804
G1 X-13.581 Y-11.071 E0.058
G1 X-13.385 Y-11.583 E0.05812
G1 X-13.118 Y-12.06 E0.05795
G1 X-12.783 Y-12.493 E0.05804
G1 X-12.389 Y-12.873 E0.05803
G1 X-11.944 Y-13.192 E0.05805
G1 X-11.457 Y-13.442 E0.05804
G1 X-10.939 Y-13.619 E0.05803
G1 X-10.401 Y-13.718 E0.05799
G1 X-9.99 Y-13.741 E0.04364
G1 X9.994 Y-13.74 E2.11864
G1 X10.54 Y-13.7 E0.05804
G1 X11.074 Y-13.581 E0.058
G1 X11.586 Y-13.385 E0.05812
G1 X12.063 Y-13.118 E0.05795
G1 X12.496 Y-12.783 E0.05804
G1 X12.876 Y-12.389 E0.05803
G1 X13.245 Y-11.858 E0.06855
G1 X14.921 Y-8.941 E0.35666
G1 X17.861 Y-4.32 E0.58065
G1 X21.039 Y0.101 E0.57723
G1 X24.463 Y4.338 E0.57753
G1 X28.127 Y8.381 E0.57845
G1 X30.008 Y10.289 E0.28405
G1 X34.022 Y14.025 E0.58135
G1 X38.188 Y17.486 E0.5742
G1 X42.58 Y20.731 E0.57893
G1 X47.138 Y23.718 E0.57774
G1 X51.84 Y26.431 E0.57552
G1 X56.711 Y28.886 E0.57829
G1 X61.687 Y31.051 E0.57531
G1 X66.807 Y32.941 E0.57861
G1 X72.018 Y34.537 E0.57778
G1 X77.337 Y35.842 E0.58063
G1 X81.612 Y36.662 E0.46148
G1 X82.004 Y36.759 E0.04281
G1 X85.342 Y37.781 E0.3701
G1 X86.013 Y38.06 E0.07704
G1 X88.991 Y39.653 E0.35805
G1 X89.602 Y40.062 E0.07795
G1 X92.243 Y42.231 E0.36231
G1 X92.766 Y42.755 E0.07849
G1 X94.963 Y45.442 E0.36797
G1 X95.369 Y46.051 E0.0776
G1 X96.972 Y49.057 E0.36117
G1 X97.251 Y49.733 E0.07753
G1 X98.237 Y52.983 E0.36006
G1 X98.381 Y53.7 E0.07753
G1 X98.722 Y57.121 E0.36448
G1 X98.722 Y57.86 E0.07835
G1 X98.386 Y61.274 E0.36369
G1 X98.24 Y62.005 E0.07903
G1 X97.218 Y65.342 E0.37
G1 X96.938 Y66.013 E0.07708
G1 X95.345 Y68.99 E0.35796
G1 X94.936 Y69.602 E0.07804
G1 X92.756 Y72.255 E0.36404
G1 X92.237 Y72.773 E0.07774
G1 X89.593 Y74.942 E0.36256
G1 X88.982 Y75.351 E0.07795
G1 X85.964 Y76.963 E0.36274
G1 X85.285 Y77.244 E0.07791
G1 X81.982 Y78.245 E0.3659
G1 X81.251 Y78.389 E0.07899
G1 X77.798 Y78.719 E0.36774
G1 X77.07 Y78.718 E0.07718
G1 X73.713 Y78.384 E0.35766
G1 X72.995 Y78.24 E0.07764
G1 X69.722 Y77.247 E0.36261
G1 X69.043 Y76.966 E0.07791
G1 X66.012 Y75.346 E0.36435
G1 X65.397 Y74.935 E0.07842
G1 X62.725 Y72.736 E0.36687
G1 X62.203 Y72.211 E0.07849
G1 X60.034 Y69.554 E0.36363
G1 X59.617 Y68.922 E0.08027
G1 X57.161 Y64.229 E0.56155
G1 X54.498 Y59.406 E0.58408
G1 X51.597 Y54.79 E0.57799
G1 X48.446 Y50.352 E0.57703
G1 X45.04 Y46.09 E0.5784
G1 X41.401 Y42.029 E0.5781
G1 X39.528 Y40.109 E0.28436
G1 X37.581 Y38.223 E0.28738
G1 X33.48 Y34.574 E0.58197
G1 X29.234 Y31.208 E0.57444
G1 X24.769 Y28.062 E0.57906
G1 X20.148 Y25.182 E0.57726
G1 X15.376 Y22.57 E0.57674
G1 X10.468 Y20.235 E0.57621
G1 X5.416 Y18.173 E0.57849
G1 X0.283 Y16.409 E0.57542
G1 X-4.968 Y14.931 E0.57833
G1 X-10.794 Y13.654 E0.63232
G1 F3900 E-5
G1 F24000 Z1.3
G0 F9000 X61.564 Y50.898 Z1.3
;TYPE:SUPPORT
G1 F24000 Z0.3
G1 F3900 E5
G1 F1200 X63.157 Y47.918 E0.21073
G1 X65.303 Y45.303 E0.21096
G1 X67.918 Y43.157 E0.21096
G1 X70.898 Y41.564 E0.21073
G1 X74.133 Y40.583 E0.21082
G1 X77.5 Y40.251 E0.21099
G1 X80.866 Y40.583 E0.21093
G1 X84.101 Y41.564 E0.21082
G1 X87.081 Y43.157 E0.21073
G1 X89.696 Y45.303 E0.21096
G1 X91.842 Y47.918 E0.21096
G1 X93.435 Y50.898 E0.21073
G1 X94.416 Y54.132 E0.21076
G1 X94.749 Y57.5 E0.21106
G1 X94.416 Y60.867 E0.211
G1 X93.435 Y64.101 E0.21076
G1 X91.842 Y67.081 E0.21073
G1 X89.696 Y69.696 E0.21096
G1 X87.081 Y71.842 E0.21096
G1 X84.101 Y73.435 E0.21073
G1 X80.867 Y74.416 E0.21076
G1 X77.5 Y74.749 E0.211
G1 X74.132 Y74.416 E0.21106
G1 X70.898 Y73.435 E0.21076
G1 X67.918 Y71.842 E0.21073
G1 X65.303 Y69.696 E0.21096
G1 X63.157 Y67.081 E0.21096
G1 X61.564 Y64.101 E0.21073
G1 X60.583 Y60.866 E0.21082
G1 X60.251 Y57.499 E0.21099
G1 X60.583 Y54.133 E0.21093
G1 X61.564 Y50.898 E0.21082
G0 F9000 X62.03 Y51.087
G1 F1200 X63.573 Y48.2 E0.20414
G1 X65.658 Y45.658 E0.20503
G1 X68.2 Y43.573 E0.20503
G1 X71.087 Y42.03 E0.20414
G1 X74.236 Y41.074 E0.20523
G1 X77.5 Y40.753 E0.20453
G1 X80.763 Y41.074 E0.20447
G1 X83.912 Y42.03 E0.20523
G1 X86.799 Y43.573 E0.20414
G1 X89.341 Y45.658 E0.20503
G1 X91.426 Y48.2 E0.20503
G1 X92.969 Y51.087 E0.20414
G1 X93.925 Y54.236 E0.20523
G1 X94.247 Y57.499 E0.20448
G1 X93.925 Y60.763 E0.20454
G1 X92.969 Y63.912 E0.20523
G1 X91.426 Y66.799 E0.20414
G1 X89.341 Y69.341 E0.20503
G1 X86.799 Y71.426 E0.20503
G1 X83.912 Y72.969 E0.20414
G1 X80.763 Y73.925 E0.20523
G1 X77.5 Y74.247 E0.20448
G1 X74.236 Y73.925 E0.20454
G1 X71.087 Y72.969 E0.20523
G1 X68.2 Y71.426 E0.20414
G1 X65.658 Y69.341 E0.20503
G1 X63.573 Y66.799 E0.20503
G1 X62.03 Y63.912 E0.20414
G1 X61.074 Y60.763 E0.20523
G1 X60.753 Y57.499 E0.20453
G1 X61.074 Y54.236 E0.20447
G1 X62.03 Y51.087 E0.20523
G0 F9000 X62.493 Y51.282
G1 F1200 X63.991 Y48.48 E0.19814
G1 X66.013 Y46.013 E0.19892
G1 X68.48 Y43.991 E0.19892
G1 X71.282 Y42.493 E0.19814
G1 X74.33 Y41.568 E0.19864
G1 X77.5 Y41.256 E0.19865
G1 X80.669 Y41.568 E0.19858
G1 X83.717 Y42.493 E0.19864
G1 X86.519 Y43.991 E0.19814
G1 X88.986 Y46.013 E0.19892
G1 X91.008 Y48.48 E0.19892
G1 X92.506 Y51.282 E0.19814
G1 X93.431 Y54.33 E0.19864
G1 X93.744 Y57.499 E0.19859
G1 X93.431 Y60.669 E0.19865
G1 X92.506 Y63.717 E0.19864
G1 X91.008 Y66.519 E0.19814
G1 X88.986 Y68.986 E0.19892
G1 X86.519 Y71.008 E0.19892
G1 X83.717 Y72.506 E0.19814
G1 X80.669 Y73.431 E0.19864
G1 X77.5 Y73.744 E0.19859
G1 X74.33 Y73.431 E0.19865
G1 X71.282 Y72.506 E0.19864
G1 X68.48 Y71.008 E0.19814
G1 X66.013 Y68.986 E0.19892
G1 X63.991 Y66.519 E0.19892
G1 X62.493 Y63.717 E0.19814
G1 X61.568 Y60.669 E0.19864
G1 X61.256 Y57.499 E0.19865
G1 X61.568 Y54.33 E0.19858
G1 X62.493 Y51.282 E0.19864
G0 F9000 X62.956 Y51.477
G1 F1200 X64.409 Y48.759 E0.1922
G1 X66.368 Y46.368 E0.19277
G1 X68.759 Y44.409 E0.19277
G1 X71.477 Y42.956 E0.1922
G1 X74.424 Y42.062 E0.19205
G1 X77.5 Y41.759 E0.19276
G1 X80.575 Y42.062 E0.19269
G1 X83.522 Y42.956 E0.19205
G1 X86.24 Y44.409 E0.1922
G1 X88.631 Y46.368 E0.19277
G1 X90.59 Y48.759 E0.19277
G1 X92.043 Y51.477 E0.1922
G1 X92.937 Y54.424 E0.19205
G1 X93.241 Y57.499 E0.1927
G1 X92.937 Y60.575 E0.19276
G1 X92.043 Y63.522 E0.19205
G1 X90.59 Y66.24 E0.1922
G1 X88.631 Y68.631 E0.19277
G1 X86.24 Y70.59 E0.19277
G1 X83.522 Y72.043 E0.1922
G1 X80.575 Y72.937 E0.19205
G1 X77.5 Y73.241 E0.1927
G1 X74.424 Y72.937 E0.19276
G1 X71.477 Y72.043 E0.19205
G1 X68.759 Y70.59 E0.1922
G1 X66.368 Y68.631 E0.19277
G1 X64.409 Y66.24 E0.19277
G1 X62.956 Y63.522 E0.1922
G1 X62.062 Y60.575 E0.19205
G1 X61.759 Y57.499 E0.19276
G1 X62.062 Y54.424 E0.19269
G1 X62.956 Y51.477 E0.19205
G0 F9000 X63.419 Y51.672
G1 F1200 X64.827 Y49.038 E0.18626
G1 X66.723 Y46.723 E0.18661
G1 X69.038 Y44.827 E0.18661
G1 X71.672 Y43.419 E0.18626
G1 X74.518 Y42.556 E0.18546
G1 X77.5 Y42.262 E0.18687
G1 X80.481 Y42.556 E0.18681
G1 X83.327 Y43.419 E0.18546
G1 X85.961 Y44.827 E0.18626
G1 X88.276 Y46.723 E0.18661
G1 X90.172 Y49.038 E0.18661
G1 X91.58 Y51.672 E0.18626
G1 X92.443 Y54.518 E0.18546
G1 X92.738 Y57.499 E0.18681
G1 X92.443 Y60.481 E0.18687
G1 X91.58 Y63.327 E0.18546
G1 X90.172 Y65.961 E0.18626
G1 X88.276 Y68.276 E0.18661
G1 X85.961 Y70.172 E0.18661
G1 X83.327 Y71.58 E0.18626
G1 X80.481 Y72.443 E0.18546
G1 X77.5 Y72.738 E0.18681
G1 X74.518 Y72.443 E0.18687
G1 X71.672 Y71.58 E0.18546
G1 X69.038 Y70.172 E0.18626
G1 X66.723 Y68.276 E0.18661
G1 X64.827 Y65.961 E0.18661
G1 X63.419 Y63.327 E0.18626
G1 X62.556 Y60.481 E0.18546
G1 X62.262 Y57.499 E0.18687
G1 X62.556 Y54.518 E0.18681
G1 X63.419 Y51.672 E0.18546
G0 F9000 X63.882 Y51.867
G1 F1200 X65.245 Y49.317 E0.18032
G1 X67.078 Y47.078 E0.18045
G1 X69.317 Y45.245 E0.18045
G1 X71.867 Y43.882 E0.18032
G1 X74.612 Y43.05 E0.17888
G1 X77.5 Y42.765 E0.18098
G1 X80.387 Y43.05 E0.18092
G1 X83.132 Y43.882 E0.17888
G1 X85.682 Y45.245 E0.18032
G1 X87.921 Y47.078 E0.18045
G1 X89.754 Y49.317 E0.18045
G1 X91.117 Y51.867 E0.18032
G1 X91.949 Y54.612 E0.17888
G1 X92.235 Y57.499 E0.18092
G1 X91.949 Y60.387 E0.18098
G1 X91.117 Y63.132 E0.17888
G1 X89.754 Y65.682 E0.18032
G1 X87.921 Y67.921 E0.18045
G1 X85.682 Y69.754 E0.18045
G1 X83.132 Y71.117 E0.18032
G1 X80.387 Y71.949 E0.17888
G1 X77.5 Y72.235 E0.18092
G1 X74.612 Y71.949 E0.18098
G1 X71.867 Y71.117 E0.17888
G1 X69.317 Y69.754 E0.18032
G1 X67.078 Y67.921 E0.18045
G1 X65.245 Y65.682 E0.18045
G1 X63.882 Y63.132 E0.18032
G1 X63.05 Y60.387 E0.17888
G1 X62.765 Y57.499 E0.18098
G1 X63.05 Y54.612 E0.18092
G1 X63.882 Y51.867 E0.17888
G0 F9000 X64.347 Y52.058
G1 F1200 X65.663 Y49.596 E0.17409
G1 X67.433 Y47.433 E0.1743
G1 X69.596 Y45.663 E0.1743
G1 X72.058 Y44.347 E0.17409
G1 X74.71 Y43.543 E0.17282
G1 X77.5 Y43.268 E0.17484
G1 X80.289 Y43.543 E0.17477
G1 X82.941 Y44.347 E0.17282
G1 X85.403 Y45.663 E0.17409
G1 X87.566 Y47.433 E0.1743
G1 X89.336 Y49.596 E0.1743
G1 X90.652 Y52.058 E0.17409
G1 X91.456 Y54.71 E0.17282
G1 X91.732 Y57.499 E0.17478
G1 X91.456 Y60.289 E0.17484
G1 X90.652 Y62.941 E0.17282
G1 X89.336 Y65.403 E0.17409
G1 X87.566 Y67.566 E0.1743
G1 X85.403 Y69.336 E0.1743
G1 X82.941 Y70.652 E0.17409
G1 X80.289 Y71.456 E0.17282
G1 X77.5 Y71.732 E0.17478
G1 X74.71 Y71.456 E0.17484
G1 X72.058 Y70.652 E0.17282
G1 X69.596 Y69.336 E0.17409
G1 X67.433 Y67.566 E0.1743
G1 X65.663 Y65.403 E0.1743
G1 X64.347 Y62.941 E0.17409
G1 X63.543 Y60.289 E0.17282
G1 X63.268 Y57.499 E0.17484
G1 X63.543 Y54.71 E0.17477
G1 X64.347 Y52.058 E0.17282
G0 F9000 X64.81 Y52.253
G1 F1200 X66.081 Y49.875 E0.16815
G1 X67.788 Y47.788 E0.16814
G1 X69.875 Y46.081 E0.16814
G1 X72.253 Y44.81 E0.16815
G1 X74.803 Y44.037 E0.16617
G1 X77.5 Y43.771 E0.16901
G1 X80.195 Y44.037 E0.16888
G1 X82.746 Y44.81 E0.16623
G1 X85.124 Y46.081 E0.16815
